X:7
T:PADDY MILES' FRICASSEE -- REEL.
R:reel
M:C|
L:1/8
Z:20020507 John Walsh <walsh:mat:h.ubc.ca>
K:G
vgf|:eA ((3.A.A.A) edBc|dBGB gBaB|eA ((3.A.A.A) edBc|dBgB BAAf:|
|:eaaf g2 bg|egdg egdg|eaaf g2 bg|egdB BAAf:|
